X: 1
T: Wild Mountain Thyme
R: barndance
M: 4/4
L: 1/8
K: Cmaj
cA| G>G Ac c<c eg| a>g ag e<g eg| a2 ge d>c de|f<e dc A<c cA|
G2 Ac c2 eg| a<g ag e<g eg |a2 ge d<c de| f<e dc A<c cA| G2 Ac c2||


Tune 10655	Setting 23161

